svgs/sharp-light/money-bill-wheat.svg

<svg xmlns="http://www.w3.org/2000/svg" viewBox="0 0 512 512"><!--! Font Awesome Pro 6.6.0 by @fontawesome - https://fontawesome.com License - https://fontawesome.com/license (Commercial License) Copyright 2024 Fonticons, Inc. --><path d="M224 80l0 5.3c-18.6-6.6-32-24.4-32-45.3l0-5.3c18.6 6.6 32 24.4 32 45.3zm32 0c0-38.7-27.5-71-64-78.4C186.8 .6 181.5 0 176 0L160 0l0 32 0 8c0 31.7 18.4 59 45.1 72c-26.7 13-45.1 40.3-45.1 72l0 8 0 32 16 0c5.5 0 10.8-.6 16-1.6c36.5-7.4 64-39.7 64-78.4l0-8 0-32 0-24zM48 16L32 16l0 32 16 0 64 0 16 0 0-32-16 0L48 16zM16 96L0 96l0 32 16 0 96 0 16 0 0-32-16 0L16 96zm16 80l0 32 16 0 64 0 16 0 0-32-16 0-64 0-16 0zM336 85.3c-18.6-6.6-32-24.4-32-45.3l0-5.3c18.6 6.6 32 24.4 32 45.3l0 5.3zM304 1.6C298.8 .6 293.5 0 288 0L272 0l0 32 0 8c0 31.7 18.4 59 45.1 72c-26.7 13-45.1 40.3-45.1 72l0 8 0 32 16 0c5.5 0 10.8-.6 16-1.6c36.5-7.4 64-39.7 64-78.4l0-8 0-32 0-24c0-38.7-27.5-71-64-78.4zM448 80l0 5.3c-18.6-6.6-32-24.4-32-45.3l0-5.3c18.6 6.6 32 24.4 32 45.3zm32 0c0-38.7-27.5-71-64-78.4C410.8 .6 405.5 0 400 0L384 0l0 32 0 8c0 31.7 18.4 59 45.1 72c-26.7 13-45.1 40.3-45.1 72l0 8 0 32 16 0c5.5 0 10.8-.6 16-1.6c36.5-7.4 64-39.7 64-78.4l0-8 0-32 0-24zM304 189.3l0-5.3c0-20.9 13.4-38.7 32-45.3l0 5.3c0 20.9-13.4 38.7-32 45.3zM192 184c0-20.9 13.4-38.7 32-45.3l0 5.3c0 20.9-13.4 38.7-32 45.3l0-5.3zm224 5.3l0-5.3c0-20.9 13.4-38.7 32-45.3l0 5.3c0 20.9-13.4 38.7-32 45.3zM480 288l0 48c-26.5 0-48-21.5-48-48l48 0zM32 368c44.2 0 80-35.8 80-80l288 0c0 44.2 35.8 80 80 80l0 32c-44.2 0-80 35.8-80 80l-288 0c0-44.2-35.8-80-80-80l0-32zM432 480c0-26.5 21.5-48 48-48l0 48-48 0zM32 432c26.5 0 48 21.5 48 48l-48 0 0-48zM80 288c0 26.5-21.5 48-48 48l0-48 48 0zM32 256L0 256l0 32L0 480l0 32 32 0 448 0 32 0 0-32 0-192 0-32-32 0L32 256zM224 384a32 32 0 1 1 64 0 32 32 0 1 1 -64 0zm96 0a64 64 0 1 0 -128 0 64 64 0 1 0 128 0z"/></svg>

<svg xmlns="http://www.w3.org/2000/svg" viewBox="0 0 512 512"><!--! Font Awesome Pro 6.4.0 by @fontawesome - https://fontawesome.com License - https://fontawesome.com/license (Commercial License) Copyright 2023 Fonticons, Inc. --><path d="M224 80v5.3c-18.6-6.6-32-24.4-32-45.3V34.7c18.6 6.6 32 24.4 32 45.3zm32 0c0-38.7-27.5-71-64-78.4C186.8 .6 181.5 0 176 0H160V32v8c0 31.7 18.4 59 45.1 72c-26.7 13-45.1 40.3-45.1 72v8 32h16c5.5 0 10.8-.6 16-1.6c36.5-7.4 64-39.7 64-78.4v-8V104 80zM48 16H32V48H48h64 16V16H112 48zM16 96H0v32H16h96 16V96H112 16zm16 80v32H48h64 16V176H112 48 32zM336 85.3c-18.6-6.6-32-24.4-32-45.3V34.7c18.6 6.6 32 24.4 32 45.3v5.3zM304 1.6C298.8 .6 293.5 0 288 0H272V32v8c0 31.7 18.4 59 45.1 72c-26.7 13-45.1 40.3-45.1 72v8 32h16c5.5 0 10.8-.6 16-1.6c36.5-7.4 64-39.7 64-78.4v-8V104 80c0-38.7-27.5-71-64-78.4zM448 80v5.3c-18.6-6.6-32-24.4-32-45.3V34.7c18.6 6.6 32 24.4 32 45.3zm32 0c0-38.7-27.5-71-64-78.4C410.8 .6 405.5 0 400 0H384V32v8c0 31.7 18.4 59 45.1 72c-26.7 13-45.1 40.3-45.1 72v8 32h16c5.5 0 10.8-.6 16-1.6c36.5-7.4 64-39.7 64-78.4v-8V104 80zM304 189.3V184c0-20.9 13.4-38.7 32-45.3V144c0 20.9-13.4 38.7-32 45.3zM192 184c0-20.9 13.4-38.7 32-45.3V144c0 20.9-13.4 38.7-32 45.3V184zm224 5.3V184c0-20.9 13.4-38.7 32-45.3V144c0 20.9-13.4 38.7-32 45.3zM480 288v48c-26.5 0-48-21.5-48-48h48zM32 368c44.2 0 80-35.8 80-80H400c0 44.2 35.8 80 80 80v32c-44.2 0-80 35.8-80 80H112c0-44.2-35.8-80-80-80V368zM432 480c0-26.5 21.5-48 48-48v48H432zM32 432c26.5 0 48 21.5 48 48H32V432zM80 288c0 26.5-21.5 48-48 48V288H80zM32 256H0v32V480v32H32 480h32V480 288 256H480 32zM224 384a32 32 0 1 1 64 0 32 32 0 1 1 -64 0zm96 0a64 64 0 1 0 -128 0 64 64 0 1 0 128 0z"/></svg>
